!!!COM: Scriabin, Alexander
!!!OTL@@FR: Etude
!!!OPR@@FR: 12 Etudes
!!!OPS: 8
!!!ONM: 4
!!!ODT: 1894
!!!AGN: Etude
!!!OMD: Piacevole [quarter] = 100
**kern	**kern	**dynam
*part1	*part1	*
*staff2	*staff1	*staff1/2
*Ipiano	*Ipiano	*
*clefF4	*clefG2	*
*k[f#c#g#d#a#]	*k[f#c#g#d#a#]	*
*B:	*B:	*
*met(c)	*met(c)	*
*M4/4	*M4/4	*
*MM100	*MM100	*
*Xtuplet	*Xtuplet	*
12BBL	20d#LL>	<
.	20b	.
12F#	.	.
.	20dd#	.
.	20gg#	.
12f#J	.	.
.	20ff#JJ	[
=1	=1	=1
16eLL	20dd#~LL	>
.	20g#	.
16B	.	.
.	20e	.
16C#	.	.
.	20f#	.
16GG#JJ	.	.
.	20g#JJ	.
16CC#LL	20cc#~LL	.
.	20e	.
16GG#	.	.
.	20f#	.
16E	.	.
.	20g#	.
16d#JJ	.	.
.	20b~JJ	.
12c#L	20a#~LL	.
.	20e	.
12F#	.	.
.	20f#	.
.	20d#	.
12FF#J	.	.
.	20c#JJ	]
12GG#L	20BLL	<
.	20g#	.
12D#	.	.
.	20b	.
.	20ee	.
12d#J	.	.
.	20dd#JJ	[
!!LO:LB:g=original
=2	=2	=2
16c#LL	20b~LL	>
.	20e	.
16G#	.	.
.	20c#	.
16AA#	.	.
.	20d#	.
16EEJJ	.	.
.	20eJJ	.
16AAA#LL	20a#~LL	.
.	20c#	.
16AA#	.	.
.	20d#	.
16AA#	.	.
.	20e	.
16BJJ	.	.
.	20g#~JJ	.
12A#L	20f##~LL	.
.	20A#	.
12D#	.	.
.	20d#	.
.	20f##	]
12DD#J	.	.
.	20dd#JJ	.
12GG#L	20d#LL	<
.	20b	.
12D#	.	.
.	20dd#	.
.	20aa#	.
12f#XJ	.	.
.	20gg#JJ	[
=3	=3	=3
12e#L	20dd#LL>	>
.	20g#	.
12B	.	.
.	20a#	.
.	20b	.
12C#J	.	.
.	20cc#JJ	]
12FF#L	20c#LL	<
.	20an	.
12C#	.	.
.	20cc#	.
.	20gg#	.
12enJ	.	.
.	20ff#JJ	[
12d#L	20cc#LL	>
.	20f#	.
12An	.	.
.	20g#	.
.	20a	.
12BBJ	.	.
.	20bJJ	]
12EEL	20BLL	<
.	20g#	.
12C#	.	.
.	20b	.
.	20dd#	.
12c#J	.	.
.	20cc#JJ	[
!!LO:LB:g=original
=4	=4	=4
12EE#L	20BLL	>
.	20g#	.
12C#	.	.
.	20b	.
.	20dd#	.
12c#J	.	.
.	20cc#JJ	.
12FF#L	20BLL	.
.	20f#	.
12C#	.	.
.	20b	.
.	20dd#	.
12c#J	.	.
.	20cc#JJ	.
16GG#LL	20c#LL	.
.	20e#	.
16c#	.	.
.	20g#	.
16F#	.	.
.	20f#	.
16AA#JJ	.	.
.	20enJJ	]
12BBL	20d#LL>	<
.	20b	.
12F#	.	.
.	20dd#	.
.	20gg#	.
12f#J	.	.
.	20ff#JJ	[
=5	=5	=5
16eLL	20dd#LL	>
.	20g#	.
16B	.	.
.	20e	.
16C#	.	.
.	20f#	.
16GG#JJ	.	.
.	20g#JJ	.
16CC#LL	20cc#LL	.
.	20e	.
16GG#	.	.
.	20f#	.
16E	.	.
.	20g#	.
16d#JJ	.	.
.	20bJJ	.
12c#L	20a#LL	.
.	20e	.
12F#	.	.
.	20f#	.
.	20d#	.
12FF#J	.	.
.	20c#JJ	]
12GG#L	20BLL	<
.	20g#	.
12D#	.	.
.	20b	.
.	20ee	.
12d#J	.	.
.	20dd#JJ	[
!!LO:LB:g=original
=6	=6	=6
16c#LL	20bLL	>
.	20e	.
16G#	.	.
.	20c#	.
16AA#	.	.
.	20d#	.
16EEJJ	.	.
.	20eJJ	.
16AAA#LL	20a#LL	.
.	20c#	.
16AA#	.	.
.	20d#	.
16AA#	.	.
.	20e	.
16BJJ	.	.
.	20g#JJ	.
12A#L	20f##LL	.
.	20A#	.
12D#	.	.
.	20d#	.
.	20f##	.
12DD#J	.	.
.	20dd#JJ	]
12DD#L	20A#LL	<
.	20f#	.
12AA#	.	.
.	20a#	.
.	20ee#	.
12c#J	.	.
.	20dd#JJ	[
=7	=7	=7
12B#L	20a#LL	>
.	20d#	.
12F#	.	.
.	20e#	.
.	20f#	.
12GG#J	.	.
.	20g#JJ	]
12CC#L	20G#LL	<
.	20en	.
12GG#	.	.
.	20g#	.
.	20dd#	.
12BnJ	.	.
.	20cc#JJ	[
12A#L	20g#LL	>
.	20c#	.
12E	.	.
.	20d#	.
.	20e	.
12FF#J	.	.
.	20f#JJ	]
12BBBL	20F#LL	<
.	20d#	.
12GG#	.	.
.	20f#	.
.	20a#	.
12G#J	.	.
.	20g#JJ	[
!!LO:LB:g=original
=8	=8	=8
12BBB#L	20G#LL	>
.	20d#	.
12GG#	.	.
.	20f#	.
.	20a#	.
12G#J	.	.
.	20g#JJ	.
12CC#L	20BnLL	.
.	20c#	.
12C#	.	.
.	20e#	.
.	20a#	.
12BnJ	.	.
.	20g#JJ	.
12A#L	20f#LL	.
.	20A#	.
12C#	.	.
.	20c#	.
.	20f#	.
12FF#J	.	.
.	20cc#JJ	]
(20AA#LL	4f#	<
20E	.	.
20F#	.	.
20d#	.	.
20c#JJ)	.	.
=9	=9	=9
!	!LO:TX:b:i:t=legato cantabile	!
(20AAnLL	[4f##	.
20D#	.	.
20F##	.	.
20d#	.	.
20c#JJ)	.	.
(20AALL	12f##L]	.
20D#	.	.
.	12f#	.
20F##	.	.
20d#	.	.
.	12f##J	.
20c#JJ)	.	.
(20GG#LL	12eeL>	.
20E	.	.
.	12g#	.
20G#	.	.
20c#	.	.
.	12f##J	.
20A#JJ)	.	.
(20GG#LL	12cc#L	.
20E	.	.
.	12f#	.
20F#	.	.
20c#	.	.
.	12eJ	.
20AnJJ)	.	.
!!LO:LB:g=original
=10	=10	=10
20GG#LL	12anL	.
20E	.	.
.	12d#	.
20F#	.	.
20f#	.	.
.	12c#J	.
20AnJJ	.	.
20GG#LL	6B# 6g#	.
20D#	.	.
20F#	.	.
20B#	.	.
.	12f#	.
20G#JJ	.	.
20C#LL	12e~L	.
20G#	.	.
.	12f#~	.
20c#	.	.
20f#	.	.
.	12f##~J	.
20eJJ	.	.
20BB#LL	4g#	.
20F#	.	.
20G#	.	.
20e	.	.
20d#JJ	.	.
=11	=11	=11
20BBnLL	[4g##	.
20E#	.	.
20G##	.	.
20e#	.	.
20d#JJ	.	.
20BBLL	16g##LL]	.
20E#	.	.
.	16a#	.
20G##	.	.
.	16g#	.
20e#	.	.
.	16g##JJ	.
20d#JJ	.	.
20AA#LL	12ff#L	.
20F#	.	.
.	12a#	.
20A#	.	.
20d#	.	.
.	12g##J	.
20B#JJ	.	.
20AA#LL	12dd#L	.
20F#	.	.
.	12g#	.
20G#	.	.
20d#	.	.
.	12f#J	.
20BnJJ	.	.
!!LO:LB:g=original
=12	=12	=12
20AA#LL	12bL	.
20F#	.	.
.	12e#	.
20G#	.	.
20g#	.	.
.	12d#J	.
20BJJ	.	.
20AA#LL	6a#	.
20E#	.	.
20G#	.	.
20c##	.	.
.	12g#	.
20A#JJ	.	.
16D#LL	12f#L	.
16A#	.	.
.	12e#	.
16e#	.	.
.	12f#J	.
16d#JJ	.	.
20D#LL	4g#	.
20G#	.	.
20B#	.	.
20g#	.	.
20f#JJ	.	.
=13	=13	=13
20DnLL	[4g##	.
20F#	.	.
20B#	.	.
20g#	.	.
20f#JJ	.	.
20DLL	12g##L]	.
20F#	.	.
.	12g#	.
20B#	.	.
20g#	.	.
.	12g##J	.
20f#JJ	.	.
20C#LL	12a#L	.
20F#	.	.
.	12gg#X	.
20d#X	.	.
20a#	.	.
.	12ff#J	.
20c#JJ	.	.
20DnLL	12anL	.
20F#	.	.
.	12g#X	.
20cn	.	.
20g#	.	.
.	12aJ	.
20f#JJ	.	.
!!LO:LB:g=original
=14	=14	=14
20DnLL	12bL	.
20Gn	.	.
.	12aan	.
20e	.	.
20b	.	.
.	12ggnJ	.
20dnJJ	.	.
20DLL	12ff#L	.
20G#	.	.
.	12ee#	.
20f#	.	.
20b#	.	.
.	12ff#J	.
20B#JJ	.	.
20C#LL	16ccc#LL	.
20G#	.	.
.	16dd#X	.
20f#	.	.
.	16bb	.
20bn	.	.
.	16aa#JJ	.
20BnJJ	.	.
24C#LL	12dd#L	.
24G#	.	.
24f#	12gg#	.
24B	.	.
24e#	12cc#J	.
24c#JJ	.	.
=15	=15	=15
*	*tuplet	*
*	*Xbrackettup	*
!	!LO:TUP:a	!
20FF#LL	12ff#	.
20C#	.	.
.	6f#	>
20A#~	.	.
20d#	.	.
20c#JJ	.	.
!	!LO:TUP:a	!
20FF#LL	12ff#	.
20C#	.	.
.	6f#	.
20G#~	.	.
20c#	.	.
20BJJ	.	.
!	!LO:TUP:a	!
24FF#LL	12ff#	.
24C#	.	.
24F#~	6f#	.
24A#	.	.
24f#	.	.
24eJJ	.	.
*	*Xtuplet	*
12BBL	20d#LL	.
.	20b	pp
12F#	.	.
.	20dd#	.
.	20gg#	.
12f#J	.	.
.	20ff#JJ	.
!!LO:LB:g=original
=16	=16	=16
16eLL	20dd#LL	.
.	20g#	.
16B	.	.
.	20e	.
16C#	.	.
.	20f#	.
16GG#JJ	.	.
.	20g#JJ	.
16CC#LL	20cc#LL	.
.	20e	.
16GG#	.	.
.	20f#	.
16E	.	.
.	20g#	.
16d#JJ	.	.
.	20bJJ	.
12c#L	20a#LL	.
.	20e	.
12F#	.	.
.	20f#	.
.	20d#	.
12FF#J	.	.
.	20c#JJ	.
12GG#L	20BLL	.
.	20g#	.
12D#	.	.
.	20b	.
.	20ee	.
12d#J	.	.
.	20dd#JJ	.
=17	=17	=17
16c#LL	20bLL	.
.	20e	.
16G#	.	.
.	20c#	.
16AA#	.	.
.	20d#	.
16EEJJ	.	.
.	20eJJ	.
16AAA#LL	20a#LL	.
.	20c#	.
16AA#	.	.
.	20d#	.
16AA#	.	.
.	20e	.
16BJJ	.	.
.	20g#JJ	.
12A#L	20f##LL	.
.	20A#	.
12D#	.	.
.	20d#	.
.	20f##	.
12DD#J	.	.
.	20dd#JJ	.
12GG#L	20d#LL	.
.	20b	.
12D#	.	.
.	20dd#	.
.	20aa#	.
12f#XJ	.	.
.	20gg#JJ	.
!!LO:LB:g=original
=18	=18	=18
12e#L	20dd#LL>	.
.	20g#	.
12B	.	.
.	20a#	.
.	20b	.
12C#J	.	.
.	20cc#JJ	.
12FF#L	20c#LL	.
.	20an	.
12C#	.	.
.	20cc#	.
.	20gg#	.
12enJ	.	.
.	20ff#JJ	.
12d#L	20cc#LL	.
.	20f#	.
12An	.	.
.	20g#	.
.	20a	.
12BBJ	.	.
.	20bJJ	.
12EEL	20BLL	.
.	20g#	.
12C#	.	.
.	20b	.
.	20dd#	.
12c#J	.	.
.	20cc#JJ	.
=19	=19	=19
12EE#L	20BLL	<
.	20g#	.
12C#	.	.
.	20b	.
.	20dd#	.
12c#J	.	.
.	20cc#JJ	.
12FF#L	20BLL	.
.	20f#	.
12C#	.	.
.	20b	.
.	20dd#	.
12c#J	.	.
.	20cc#JJ	.
12GG#L	20BLL	.
.	20e#	.
12C#	.	.
.	20b	.
.	20dd#	.
12c#J	.	.
.	20cc#JJ	.
12AA#XL	20enLL>	.
.	20cc#	.
12F#	.	.
.	20ee	.
.	20gg#	.
12f#J	.	.
.	20ff#JJ	.
!!LO:LB:g=original
=20	=20	=20
12BBL	20d#LL>	<
.	20b	.
12F#	.	.
.	20dd#	.
.	20gg#	.
12f#J	.	.
.	20ff#JJ	.
12GG#L	20d#LL	.
.	20b	.
12E	.	.
.	20dd#	.
.	20ff#	.
12BJ	.	.
.	20eeJJ	.
12AA#L	20c#LL	.
.	20g#	.
12E	.	.
.	20cc#	.
.	20ff#	.
12c#J	.	.
.	20eeJJ	.
12FF##L	20c#LL	>
.	20d#	.
12D#	.	.
.	20a#	.
.	20ee	.
12c#J	.	.
.	20dd#JJ	.
=21	=21	=21
12FF#L	20B#LL	.
.	20d#	.
12D#	.	.
.	20an	.
.	20ee	.
12B#J	.	.
.	20dd#JJ	.
12EEL	20BnLL	.
.	20c#	.
12C#	.	.
.	20g#	.
.	20dd#	.
12BnJ	.	.
.	20cc#JJ	.
12EE#L	20BLL	.
.	20c#	.
12C#	.	.
.	20g#	.
.	20dd#	.
12BJ	.	.
.	20cc#JJ	.
12FF#L	20enLL	.
.	20f#	.
12F#	.	.
.	20a#	.
.	20dd#	.
12FF#J	.	.
.	20cc#JJ	.
!!LO:LB:g=original
=22	=22	=22
12BBBL	20d#LL>	pp
.	20b	.
12FF#	.	.
.	20dd#	.
.	20gg#	.
12F#J	.	.
.	20ff#JJ	.
12e~L	20dd#LL	.
.	20g#	.
12F#	.	.
.	20e	.
.	20f#	.
12FF#J	.	.
.	20cc#JJ	.
12BBBL	20d#LL>	.
.	20b	.
12FF#	.	.
.	20dd#	.
.	20gg#	.
12F#J	.	.
.	20ff#JJ	.
12e~L	20dd#LL	.
.	20g#	.
12F#	.	.
.	20e	.
.	20f#	.
12FF#J	.	.
.	20cc#JJ	.
=23	=23	=23
12BBBL	20d#LL	.
.	20b	.
12FF#	.	.
.	20dd#	ppp
.	20gg#	.
12F#J	.	.
.	20ff#JJ	.
12f#~L	20f#LL	.
.	20dd#	.
12B	.	.
.	20ff#	.
.	20ccc#	.
12D#J	.	.
.	20bbJJ	.
12d#~L	20bLL	.
.	20ff#	.
12F#	.	.
.	20bb	.
.	20eee	.
12BBJ	.	.
.	20ddd#JJ	.
16B~>LL	20dd#LL	.
.	20bb	.
16D#	.	.
.	20ddd#	.
16FF#	.	.
.	20ggg#	.
16BBBJJ	.	.
.	20fff#JJ	.
=24	=24	=24
4F#~ 4d# 4b	4ff# 4ddd# 4bbb	.
*	*clefF4	*
4FFF# 4FF#	4D# 4F# 4B 4d#	.
2BBB; 2BB;	2D#; 2F#; 2B;	.
==	==	==
*-	*-	*-
!!!system-decoration: {(*)}
!!!RDF**kern: > = above
!!!RDF**kern: < = below
!!!RDF**dynam: > = dim.
!!!PPP: A.N. Skryabin: Polnoe sobranie sochinenii dlia fortepiano, vol.1 Moscow: Muzgiz, 1947. Plate M. 18650 Г.
!!!URL-pdf: https://s9.imslp.org/files/imglnks/usimg/7/75/IMSLP517076-PMLP7375-Scriabin_-_Etude_Op.8_No.1_(etc).pdf#page=12 Muzgiz, 1947. Plate M. 18650
!!!ENC: Craig Stuart Sapp
!!!END: 2004/09/04
!!!EED: Craig Stuart Sapp
!!!EEV: 2023/02/21
